X: 29092
T: Neily Cleere's
R: polka
M: 2/4
K: Dmixolydian
FG|A>G AB|cD FG|AB cA|GA/G/ FG|
A>G AB|cA f>f|ed cA|G2:|
fg|a>g f/g/a|ge fg|a>g f/g/a|g2 fg|
a>g f/g/a|ge f>f|ed cA|G2 fg|
a>g f/g/a|ge fg|a>g f/g/a|g2 fg|
af ge|fd e^c|d^c AF|G2||

